X:129
%%etbk:tnset id:46,pos:1,rep:3x,ant:
%%etbk:wsite http://www.thesession.org/tunes/display/513
%%etbk:pldat 2016-09-06T15:50,2016-08-05T17:00,2016-07-29T16:03,2016-07-28T18:02,2016-04-12T16:47,2016-01-26T17:57,2016-01-20T17:29,2016-01-13T16:56,2016-01-03T14:42,2016-01-02T13:59,2015-04-22T15:38,2015-03-24T16:15,2015-01-29T18:37,2015-01-26T19:13,2015-01-13T17:43,2015-01-08T19:08,2015-01-06T19:33,2014-12-31T14:48,2014-12-27T14:40,2014-12-18T19:00,2014-12-17T18:12,2014-12-07T13:43,2014-07-05T14:18,2014-05-20T16:47,2014-05-17T20:17,2014-04-27T17:02,2014-04-09T17:11,2014-04-08T16:58,2014-03-22T15:43,2014-03-15T16:57,2014-02-14T16:04,2013-11-26T16:59,2013-11-25T19:23,2013-11-23T15:51
T: Good Morning To Your Nightcap
Z: Piano Box Version by Martin Fleischmann
H: Created 2013-02-19 /  Last Modified 2014-04-08
M: 4/4
L: 1/8
R: reel
K: Ador
|:"am"!5!e3!3!c "em"!4!d3!2!B | "am"!3!cBcd !5!e2d2 | !5!e3c "em"!4!d3!3!B | !4!c!2!A!3!B!1!G !2!(3E!4!G!2!E !1!D2 |
"am"!5!edce "em"!4!dcBd | "am"!3!cBc!4!d !2!ee d2 | !2!eg!3!fa !4!g!2!e!1!d!3!B | "em"!4!cA!3!BG !2!(3E!4!G!2!E!1!D2 :||
|:"am"!1!E!2!AA!4!c "G"!3!B!1!GG!2!B | !3!cBcd !5!e2d2 | "am"!5!e!1!A!2!A!1!A "G"!3!B!1!G!2!G!1!G | !4!c!2!A!3!BG !2!E2!1!D2 |
"am"!1!E2!2!A!4!c "G"!3!B!1!GG!2!B | !3!cBcd !5!e2!4!d2 | "am"!2!(3efg !3!fa !4!ge!1!d!3!B | "em"!4!cA!3!BG !2!(3E!4!G!2!E!1!D2 :||


